X: 160625
T: Paddy Kelly's (4)
M: 4/4
L: 1/8
S: Luke O'Malley vol 1
Z: B.Black
Q: 360
R: reel
K: Ador
(3EF^G | A2-(3A^GA eAcA | G2 BG dGBG |EAA2 eAcA | DGBd gdBG |
EAA2 EACA | DGB,D G,B,DG |AGEF GABd |gdBG A2 :|
(3Bcd | eaa^g a2 ea | c'aa^g a=geg |(3ded Bd gfga |bgag edBd |
eaa^g a2 ea | c'aa^g a=gef |gfgb aege|dBGB A2 :|
